X:3785
L:1/8
Q:1/4=120
M:4/4
K:A
"^Brisk walking pace" z2 E2 A2 B2 |:S c4 c2 Ac | e2 e2 e2 ce | f2 ee edcf | e3 c dd d2 | E4 G2 B2 | 
 d3 d d2 cd | f2 ec dd B2 |1 A2 E2 AA B2 :|2 A4 |: eeed | c2 A2 aa g2 | f2 ee efed | c2 A2 cc d2 | 
 B4 eeed | c2 A2 aa g2 | f2 e2 b3 a | g2 e2 f2 g2 |1 a4 :|2 a4 A2 B2S ||

